src/assets/icons/weeks,fancy,46.svg

<svg width="48" height="48" viewBox="0 0 48 48" fill="none" xmlns="http://www.w3.org/2000/svg">
<rect opacity="0.2" x="4" y="6" width="40" height="40" rx="4" fill="black"/>
<path d="M6.61186 37.4205H16.386V41H20.5025V37.4205H23.0281V33.9702H20.5025V20.6364H15.1133L6.61186 34.0298V37.4205ZM16.4656 33.9702H10.9471V33.8111L16.3065 25.3295H16.4656V33.9702ZM33.712 41.2784C38.2461 41.2983 41.3384 38.3253 41.3285 34.179C41.3384 30.3608 38.6737 27.6065 35.0643 27.6065C32.8271 27.6065 30.8484 28.6804 29.9336 30.4801H29.7944C29.8143 26.5128 31.2063 24.0469 33.8612 24.0469C35.4222 24.0469 36.5458 24.902 36.8739 26.3239H41.1197C40.712 22.973 37.9279 20.358 33.8612 20.358C28.8299 20.358 25.5984 24.4347 25.5785 31.2756C25.5685 38.733 29.5259 41.2585 33.712 41.2784ZM33.6921 37.8977C31.7035 37.8977 30.2319 36.2969 30.2319 34.3082C30.2418 32.3295 31.7433 30.7188 33.7219 30.7188C35.7106 30.7188 37.1623 32.2798 37.1523 34.2983C37.1623 36.3366 35.6808 37.8977 33.6921 37.8977Z" fill="black"/>
<g opacity="0.4">
<path d="M10 4C10 2.89543 10.8954 2 12 2C13.1046 2 14 2.89543 14 4V8C14 9.10457 13.1046 10 12 10C10.8954 10 10 9.10457 10 8V4Z" fill="black"/>
<path d="M34 4C34 2.89543 34.8954 2 36 2C37.1046 2 38 2.89543 38 4V8C38 9.10457 37.1046 10 36 10C34.8954 10 34 9.10457 34 8V4Z" fill="black"/>
</g>
<path fill-rule="evenodd" clip-rule="evenodd" d="M10 6.00869C7.52043 6.04456 6.11466 6.22849 5.17157 7.17157C4 8.34315 4 10.2288 4 14V16H44V14C44 10.2288 44 8.34315 42.8284 7.17157C41.8853 6.22849 40.4796 6.04456 38 6.00869V8C38 9.10457 37.1046 10 36 10C34.8954 10 34 9.10457 34 8V6H14V8C14 9.10457 13.1046 10 12 10C10.8954 10 10 9.10457 10 8V6.00869Z" fill="black"/>
</svg>

<svg xmlns="http://www.w3.org/2000/svg" width="48" height="48" fill="none" viewBox="0 0 48 48">
  <rect width="40" height="40" x="4" y="6" fill="#000" opacity=".2" rx="4"/>
  <path fill="#000" d="M6.612 37.42h9.774V41h4.117v-3.58h2.525v-3.45h-2.525V20.636h-5.39L6.612 34.03v3.39zm9.854-3.45h-5.519v-.159l5.36-8.482h.159v8.641zm17.246 7.308c4.534.02 7.626-2.953 7.616-7.099.01-3.818-2.654-6.573-6.264-6.573-2.237 0-4.216 1.074-5.13 2.874h-.14c.02-3.967 1.412-6.433 4.067-6.433 1.561 0 2.685.855 3.013 2.277h4.246c-.408-3.351-3.192-5.966-7.259-5.966-5.031 0-8.263 4.077-8.282 10.918-.01 7.457 3.947 9.982 8.133 10.002zm-.02-3.38c-1.989 0-3.46-1.601-3.46-3.59.01-1.978 1.511-3.59 3.49-3.59 1.989 0 3.44 1.562 3.43 3.58.01 2.039-1.471 3.6-3.46 3.6z"/>
  <g opacity=".4">
    <path fill="#000" d="M10 4a2 2 0 114 0v4a2 2 0 11-4 0V4zM34 4a2 2 0 114 0v4a2 2 0 11-4 0V4z"/>
  </g>
  <path fill="#000" fill-rule="evenodd" d="M10 6.009c-2.48.036-3.885.22-4.828 1.163C4 8.343 4 10.229 4 14v2h40v-2c0-3.771 0-5.657-1.172-6.828-.943-.944-2.348-1.127-4.828-1.163V8a2 2 0 11-4 0V6H14v2a2 2 0 11-4 0V6.009z" clip-rule="evenodd"/>
</svg>
